icons/svg/tourist/rcn_ref.svg

<?xml version="1.0" encoding="UTF-8" standalone="no"?>
<!-- Created with Inkscape (http://www.inkscape.org/) -->

<svg
   xmlns:dc="http://purl.org/dc/elements/1.1/"
   xmlns:cc="http://creativecommons.org/ns#"
   xmlns:rdf="http://www.w3.org/1999/02/22-rdf-syntax-ns#"
   xmlns:svg="http://www.w3.org/2000/svg"
   xmlns="http://www.w3.org/2000/svg"
   xmlns:sodipodi="http://sodipodi.sourceforge.net/DTD/sodipodi-0.dtd"
   xmlns:inkscape="http://www.inkscape.org/namespaces/inkscape"
   version="1.0"
   width="580"
   height="580"
   id="svg2"
   sodipodi:version="0.32"
   inkscape:version="0.91 r"
   sodipodi:docname="rcn_ref.svg"
   inkscape:output_extension="org.inkscape.output.svg.inkscape">
  <metadata
     id="metadata2975">
    <rdf:RDF>
      <cc:Work
         rdf:about="">
        <dc:format>image/svg+xml</dc:format>
        <dc:type
           rdf:resource="http://purl.org/dc/dcmitype/StillImage" />
        <cc:license
           rdf:resource="http://web.resource.org/cc/PublicDomain" />
        <dc:language>en</dc:language>
        <dc:title></dc:title>
      </cc:Work>
    </rdf:RDF>
  </metadata>
  <sodipodi:namedview
     inkscape:window-height="1004"
     inkscape:window-width="1920"
     inkscape:pageshadow="2"
     inkscape:pageopacity="0.0"
     guidetolerance="10.0"
     gridtolerance="10.0"
     objecttolerance="10.0"
     borderopacity="1.0"
     bordercolor="#666666"
     pagecolor="#ffffff"
     id="base"
     inkscape:zoom="0.5"
     inkscape:cx="711.78412"
     inkscape:cy="330.48735"
     inkscape:window-x="1680"
     inkscape:window-y="0"
     inkscape:current-layer="svg2"
     showgrid="false"
     inkscape:window-maximized="1"
     inkscape:snap-global="false"
     inkscape:snap-intersection-paths="true"
     inkscape:object-paths="true"
     inkscape:object-nodes="true"
     inkscape:snap-smooth-nodes="true" />
  <defs
     id="defs4">
    <inkscape:perspective
       sodipodi:type="inkscape:persp3d"
       inkscape:vp_x="0 : 290 : 1"
       inkscape:vp_y="0 : 1000 : 0"
       inkscape:vp_z="580 : 290 : 1"
       inkscape:persp3d-origin="290 : 193.33333 : 1"
       id="perspective2441" />
    <inkscape:perspective
       id="perspective3452"
       inkscape:persp3d-origin="30 : 20 : 1"
       inkscape:vp_z="60 : 30 : 1"
       inkscape:vp_y="0 : 1000 : 0"
       inkscape:vp_x="0 : 30 : 1"
       sodipodi:type="inkscape:persp3d" />
    <symbol
       viewBox="244.5 110 489 219.9"
       id="symbol-university">
      <path
         id="path4460"
         d="M79,43l57,119c0,0,21-96,104-96s124,106,124,106l43-133l82-17L0,17L79,43z" />
      <path
         id="path4462"
         d="M94,176l-21,39"
         stroke-width="20"
         stroke="#000000"
         fill="none" />
      <path
         id="path4464"
         d="M300,19c0,10.5-22.6,19-50.5,19S199,29.5,199,19s22.6-19,50.5-19S300,8.5,300,19z" />
      <path
         id="path4466"
         d="M112,216l-16-38L64,88c0,0-9-8-4-35s16-24,16-24"
         stroke-width="20"
         stroke="#000000"
         ill="none" />
    </symbol>
    <inkscape:perspective
       id="perspective4471"
       inkscape:persp3d-origin="372.04724 : 350.78739 : 1"
       inkscape:vp_z="744.09448 : 526.18109 : 1"
       inkscape:vp_y="0 : 1000 : 0"
       inkscape:vp_x="0 : 526.18109 : 1"
       sodipodi:type="inkscape:persp3d" />
    <inkscape:perspective
       id="perspective4668"
       inkscape:persp3d-origin="6 : 4 : 1"
       inkscape:vp_z="12 : 6 : 1"
       inkscape:vp_y="0 : 1000 : 0"
       inkscape:vp_x="0 : 6 : 1"
       sodipodi:type="inkscape:persp3d" />
  </defs>
  <g
     id="g1327">
    <path
       d="M 66.275,1.768 C 24.94,1.768 1.704,23.139 1.704,66.804 L 1.704,516.927 C 1.704,557.771 22.599,579.156 63.896,579.156 L 515.92,579.156 C 557.227,579.156 578.149,558.841 578.149,516.927 L 578.149,66.804 C 578.149,24.203 557.227,1.768 514.628,1.768 C 514.624,1.768 66.133,1.625 66.275,1.768 z "
       style="fill:#111;stroke:#eee;stroke-width:3.40799999"
       id="path1329" />
  </g>
  <path
     style="color:#000000;font-style:normal;font-variant:normal;font-weight:normal;font-stretch:normal;font-size:medium;line-height:normal;font-family:sans-serif;text-indent:0;text-align:start;text-decoration:none;text-decoration-line:none;text-decoration-style:solid;text-decoration-color:#000000;letter-spacing:normal;word-spacing:normal;text-transform:none;direction:ltr;block-progression:tb;writing-mode:lr-tb;baseline-shift:baseline;text-anchor:start;white-space:normal;clip-rule:nonzero;display:inline;overflow:visible;visibility:visible;opacity:1;isolation:auto;mix-blend-mode:normal;color-interpolation:sRGB;color-interpolation-filters:linearRGB;solid-color:#000000;solid-opacity:1;fill:#ffffff;fill-opacity:1;fill-rule:evenodd;stroke:none;stroke-width:30.84116745;stroke-linecap:round;stroke-linejoin:round;stroke-miterlimit:4;stroke-dasharray:none;stroke-dashoffset:0;stroke-opacity:1;color-rendering:auto;image-rendering:auto;shape-rendering:auto;text-rendering:auto;enable-background:accumulate"
     d="M 523.93555 39.185547 L 359.51562 39.625 C 352.68806 39.64414 346.68571 44.150274 344.76172 50.701172 L 315.85156 149.17383 C 314.94272 152.27249 315.02949 155.57827 316.09961 158.625 L 344.33008 239.02539 C 346.50369 245.21541 352.35549 249.35273 358.91602 249.33789 L 508.2793 248.99023 L 508.2793 534.38867 C 508.27884 537.61767 510.896 540.2357 514.125 540.23633 L 534.04102 540.23633 C 537.26849 540.23571 539.88502 537.62005 539.88672 534.39258 L 540.0293 236.38281 C 540.20727 235.43246 540.30585 234.45403 540.30078 233.45117 L 540.05273 184.56055 L 540.09766 92.429688 C 540.09819 91.570532 539.90863 90.756434 539.57617 90.021484 L 539.39648 54.527344 C 539.35228 46.026162 532.43682 39.164036 523.93555 39.185547 z M 358.73438 67.320312 L 443.83984 67.320312 C 462.545 67.320312 476.16655 69.759069 483.89258 74.638672 C 494.46505 81.551442 500.35938 91.92209 500.35938 104.12109 C 500.35937 117.33668 493.24608 128.51944 480.84375 134.82227 C 475.76083 137.26206 470.47501 138.68558 459.69922 140.71875 C 477.38778 146.61491 485.11236 155.76204 488.16211 174.06055 L 489.58594 181.78711 C 489.99257 184.63355 490.39648 186.66915 490.39648 187.48242 C 491.41307 193.98855 491.61798 195.41057 492.83789 197.03711 C 494.05778 198.86695 496.4979 200.08594 498.73438 200.08594 C 504.83387 200.08594 507.88262 193.58042 508.08594 180.77148 L 519.06641 180.77148 L 519.06641 183.21094 C 519.06641 204.76252 506.46213 217.16406 484.50391 217.16406 C 466.81536 217.16406 455.42903 208.8294 451.97266 192.9707 C 451.3627 189.71762 450.3449 181.17888 449.125 167.55664 C 448.31173 155.96759 447.49917 153.52708 444.24609 149.66406 C 440.58639 145.59773 434.89301 143.56445 426.15039 143.56445 L 414.76562 143.56445 L 414.76562 184.63477 C 414.76562 197.64704 414.76429 198.2561 416.1875 200.08594 C 418.01734 202.11911 422.49004 202.93164 433.0625 202.93164 L 438.34961 202.93164 L 438.34961 213.91211 L 357.02344 213.91211 L 357.02344 202.93164 L 360.07227 202.93164 C 370.64474 202.93164 374.91428 202.11911 376.74414 200.08594 C 378.16764 198.2561 378.16797 197.64704 378.16797 184.63477 L 378.16797 96.597656 C 378.16797 83.585384 378.16748 82.976335 376.74414 81.146484 C 374.91428 79.113317 370.64474 78.298828 360.07227 78.298828 L 357.02344 78.298828 L 357.02344 68.824219 A 105.59386 105.59386 0 0 1 358.73438 67.320312 z M 429.19922 78.298828 C 416.18696 78.298828 414.76562 79.723444 414.76562 91.3125 L 414.76562 132.38086 L 425.94727 132.38086 C 452.9884 132.38086 461.52734 125.87504 461.52734 105.13672 C 461.52734 86.634905 452.98855 78.298828 434.08008 78.298828 L 429.19922 78.298828 z "
     id="path3239" />
  <path
     style="fill:#ffffff;fill-opacity:1"
     d="m 290.76353,262.91945 a 31.013121,30.352135 1.1674834 0 0 -9.16451,-1.36341 31.013121,30.352135 1.1674834 0 0 -31.01317,30.32699 31.013121,30.352135 1.1674834 0 0 31.01317,30.37803 31.013121,30.352135 1.1674834 0 0 31.01316,-30.32524 31.013121,30.352135 1.1674834 0 0 -21.84865,-29.01637 z m -64.36109,35.90701 c -2.65941,-0.63719 -5.47365,-0.89917 -8.3811,-0.90165 -10.85452,-0.009 -22.68744,8.4799 -37.22627,18.96935 -17.82619,12.8541 -36.23555,26.49533 -43.60422,32.93585 -3.98204,3.49317 -10.65769,10.11638 -10.65767,25.37758 0,15.26118 11.83467,20.90551 24.61196,28.71097 13.37275,8.15808 40.31731,24.69347 40.31731,24.69347 l -7.7528,60.12606 c 0,0 -0.0989,13.75698 12.20708,15.3823 12.3059,1.62534 16.08931,-11.18048 16.08931,-11.18048 0,0 10.51997,-54.2974 12.20708,-64.64004 1.74912,-10.6704 4.354,-17.74585 -8.2124,-26.51029 -12.39273,-8.64286 -34.05379,-20.11191 -34.05378,-20.11191 0,0 41.27259,-31.21465 44.00173,-32.71777 3.10127,-1.70923 5.61917,-4.74219 8.72045,-0.74514 3.18813,4.09422 24.42581,31.51512 24.42581,31.51512 0,0 3.31304,3.21976 11.4508,3.22673 l 54.47132,0.0465 a 12.405252,12.140855 1.1674615 0 0 12.40489,-12.12983 12.405252,12.140855 1.1674615 0 0 -12.40489,-12.15111 l -52.1385,-0.0448 c 0,0 -26.54803,-40.16229 -31.78301,-48.96899 -3.73549,-6.26339 -8.8424,-9.48007 -14.6931,-10.8819 z m 89.30273,122.50264 c -4.95423,-1.25204 -10.14815,-1.91908 -15.49981,-1.92368 -34.25059,-0.0294 -62.02439,27.12976 -62.02439,60.65095 0,33.52119 27.7738,60.7279 62.02439,60.75732 34.2506,0.0294 62.02634,-27.12924 62.02634,-60.65044 0,-28.2835 -19.77377,-52.07303 -46.52653,-58.83415 z m -6.20924,23.5152 c 16.03947,4.06303 27.92602,18.3542 27.92601,35.29767 0,20.08114 -16.69846,36.4084 -37.21658,36.39078 -20.51811,-0.0176 -37.21464,-16.37395 -37.21464,-36.45511 0,-20.08114 16.69653,-36.40889 37.21464,-36.39127 3.20595,0.003 6.3203,0.4055 9.29057,1.15793 z M 117.22321,421.15967 c -4.95422,-1.25206 -10.14813,-1.92085 -15.4998,-1.92546 -34.250597,-0.0294 -62.024397,27.13152 -62.024397,60.65272 0,33.52119 27.7738,60.7279 62.024397,60.75733 34.2506,0.0294 62.02634,-27.13105 62.02634,-60.65223 0,-28.28351 -19.77377,-52.07122 -46.52654,-58.83236 z m -6.21117,23.51292 c 16.03948,4.06304 27.92796,18.3547 27.92796,35.29816 0,20.08116 -16.69847,36.40841 -37.21659,36.39078 -20.518105,-0.0176 -37.214638,-16.37394 -37.214638,-36.4551 0,-20.08113 16.696533,-36.40713 37.214638,-36.3895 3.20596,0.003 6.31837,0.40325 9.28863,1.15566 z"
     id="circle3"
     inkscape:connector-curvature="0" />
</svg>

<svg width="580" height="580" viewBox="0 0 580 580" fill="none" xmlns="http://www.w3.org/2000/svg">
<g clip-path="url(#clip0)">
<path d="M66.2751 1.76815C24.9401 1.76815 1.7041 23.1391 1.7041 66.8041V516.927C1.7041 557.771 22.5991 579.156 63.8961 579.156H515.92C557.227 579.156 578.149 558.841 578.149 516.927V66.8041C578.149 24.2031 557.227 1.76815 514.628 1.76815C514.624 1.76815 66.1331 1.62515 66.2751 1.76815Z" fill="#111111" stroke="#EEEEEE" stroke-width="3.408"/>
<path fill-rule="evenodd" clip-rule="evenodd" d="M523.936 39.1856L359.516 39.6251C352.688 39.6442 346.686 44.1503 344.762 50.7012L315.852 149.174C314.943 152.273 315.03 155.578 316.1 158.625L344.33 239.025C346.504 245.215 352.356 249.353 358.916 249.338L508.28 248.99V534.389C508.279 537.618 510.896 540.236 514.125 540.236H534.041C537.269 540.236 539.885 537.62 539.887 534.393L540.03 236.383C540.208 235.433 540.306 234.454 540.301 233.451L540.053 184.561L540.098 92.4297C540.099 91.5706 539.909 90.7565 539.577 90.0215L539.397 54.5274C539.353 46.0262 532.437 39.1641 523.936 39.1856ZM358.735 67.3204H443.84C462.545 67.3204 476.167 69.7591 483.893 74.6387C494.465 81.5515 500.36 91.9221 500.36 104.121C500.36 117.337 493.246 128.519 480.844 134.822C475.761 137.262 470.475 138.686 459.7 140.719C477.388 146.615 485.113 155.762 488.162 174.061L489.586 181.787C489.993 184.634 490.397 186.669 490.397 187.482C491.413 193.989 491.618 195.411 492.838 197.037C494.058 198.867 496.498 200.086 498.735 200.086C504.834 200.086 507.883 193.58 508.086 180.772H519.067V183.211C519.067 204.763 506.462 217.164 484.504 217.164C466.816 217.164 455.429 208.829 451.973 192.971C451.363 189.718 450.345 181.179 449.125 167.557C448.312 155.968 447.5 153.527 444.246 149.664C440.587 145.598 434.893 143.565 426.151 143.565H414.766V184.635C414.766 197.647 414.765 198.256 416.188 200.086C418.018 202.119 422.49 202.932 433.063 202.932H438.35V213.912H357.024V202.932H360.073C370.645 202.932 374.915 202.119 376.744 200.086C378.168 198.256 378.168 197.647 378.168 184.635V96.5977C378.168 83.5854 378.168 82.9764 376.744 81.1465C374.915 79.1134 370.645 78.2989 360.073 78.2989H357.024V68.8243C357.589 68.3168 358.159 67.8155 358.735 67.3204V67.3204ZM429.2 78.2989C416.187 78.2989 414.766 79.7235 414.766 91.3125V132.381H425.948C452.989 132.381 461.528 125.875 461.528 105.137C461.528 86.635 452.989 78.2989 434.08 78.2989H429.2Z" fill="white"/>
<path d="M290.764 262.92C287.796 262.018 284.706 261.559 281.599 261.556C277.526 261.553 273.494 262.334 269.731 263.856C265.968 265.379 262.549 267.612 259.669 270.428C256.789 273.244 254.505 276.588 252.946 280.269C251.388 283.951 250.586 287.897 250.586 291.883C250.586 299.933 253.854 307.656 259.67 313.353C265.486 319.05 273.374 322.254 281.599 322.261C289.824 322.268 297.713 319.077 303.529 313.39C309.345 307.703 312.612 299.986 312.612 291.936C312.613 285.452 310.491 279.137 306.56 273.916C302.628 268.694 297.092 264.841 290.764 262.92V262.92ZM226.403 298.827C223.743 298.189 220.929 297.927 218.022 297.925C207.167 297.916 195.334 306.405 180.795 316.894C162.969 329.748 144.56 343.39 137.191 349.83C133.209 353.323 126.533 359.947 126.533 375.208C126.533 390.469 138.368 396.113 151.145 403.919C164.518 412.077 191.463 428.612 191.463 428.612L183.71 488.738C183.71 488.738 183.611 502.495 195.917 504.121C208.223 505.746 212.006 492.94 212.006 492.94C212.006 492.94 222.526 438.643 224.213 428.3C225.962 417.63 228.567 410.554 216.001 401.79C203.608 393.147 181.947 381.678 181.947 381.678C181.947 381.678 223.22 350.463 225.949 348.96C229.05 347.251 231.568 344.218 234.669 348.215C237.857 352.309 259.095 379.73 259.095 379.73C259.095 379.73 262.408 382.95 270.546 382.957L325.017 383.003C328.307 383.006 331.462 381.73 333.789 379.455C336.115 377.18 337.422 374.093 337.422 370.873C337.422 367.654 336.115 364.565 333.789 362.286C331.462 360.007 328.307 358.725 325.017 358.722L272.879 358.678C272.879 358.678 246.331 318.515 241.096 309.709C237.36 303.445 232.253 300.228 226.403 298.827V298.827ZM315.705 421.329C310.751 420.077 305.557 419.41 300.206 419.406C265.955 419.376 238.181 446.535 238.181 480.057C238.181 513.578 265.955 540.784 300.206 540.814C334.456 540.843 362.232 513.685 362.232 480.163C362.232 451.88 342.458 428.09 315.705 421.329V421.329ZM309.496 444.844C325.536 448.907 337.422 463.199 337.422 480.142C337.422 500.223 320.724 516.551 300.206 516.533C279.687 516.515 262.991 500.159 262.991 480.078C262.991 459.997 279.687 443.669 300.206 443.687C303.412 443.69 306.526 444.092 309.496 444.844V444.844ZM117.223 421.16C112.269 419.908 107.075 419.239 101.724 419.234C67.473 419.205 39.6992 446.366 39.6992 479.887C39.6992 513.408 67.473 540.615 101.724 540.644C135.974 540.674 163.75 513.513 163.75 479.992C163.75 451.709 143.976 427.921 117.223 421.16V421.16ZM111.012 444.673C127.052 448.736 138.94 463.027 138.94 479.971C138.94 500.052 122.242 516.379 101.724 516.362C81.2055 516.344 64.509 499.988 64.509 479.907C64.509 459.825 81.2055 443.499 101.724 443.517C104.93 443.52 108.042 443.92 111.012 444.673Z" fill="white"/>
</g>
<defs>
<clipPath id="clip0">
<path d="M0 0H580V580H0V0Z" fill="white"/>
</clipPath>
</defs>
</svg>
